X:1
T:Mr. Hunters (Fife Arms Inn, Braemar)
T:Mr. Hunters (Fife Arms Inn, Braemar)
T:Alexander Walker
C:Alexander Walker
L:1/8
M:2/2
K:E
V:1 treble 
V:1
 G | B2 eB GEEG | FB,FE DB,B,G | B2 eB GEEG | FB,FD E3 G | Bece BGGc | BGGF ECCD | EFGE ABce | %8
 BAGF GEE || a | gebe geef | gebg a3 b | gebe geBG | AGFE F3 a | gebe geef | gebg a2 ab | %16
 (gb)(fg) (ef)(ce) | BGFA GEE || %18

